Papirus/64x64/apps/com.github.gabutakut.gabutdm.svg

<?xml version="1.0" encoding="UTF-8" standalone="no"?>
<svg
   id="_图层_1"
   version="1.1"
   viewBox="0 0 64 64" width="64" height="64"
   sodipodi:docname="com.github.gabutakut.gabutdm.svg"
   xml:space="preserve"
   inkscape:version="1.4 (e7c3feb100, 2024-10-09)"
   xmlns:inkscape="http://www.inkscape.org/namespaces/inkscape"
   xmlns:sodipodi="http://sodipodi.sourceforge.net/DTD/sodipodi-0.dtd"
   xmlns="http://www.w3.org/2000/svg"
   xmlns:svg="http://www.w3.org/2000/svg"><sodipodi:namedview
     id="namedview26"
     pagecolor="#505050"
     bordercolor="#eeeeee"
     borderopacity="1"
     inkscape:showpageshadow="0"
     inkscape:pageopacity="0"
     inkscape:pagecheckerboard="0"
     inkscape:deskcolor="#505050"
     inkscape:zoom="10.6875"
     inkscape:cx="32"
     inkscape:cy="33.497076"
     inkscape:window-width="1920"
     inkscape:window-height="939"
     inkscape:window-x="0"
     inkscape:window-y="34"
     inkscape:window-maximized="1"
     inkscape:current-layer="_图层_1"
     showguides="true"><sodipodi:guide
       position="18.314013,53.077474"
       orientation="0,-1"
       id="guide30"
       inkscape:locked="false" /><sodipodi:guide
       position="29.454684,54.142758"
       orientation="0,-1"
       id="guide31"
       inkscape:locked="false" /></sodipodi:namedview><!-- Generator: Adobe Illustrator 29.0.1, SVG Export Plug-In . SVG Version: 2.1.0 Build 192)  --><defs
     id="defs6"><style
       id="style1">
      .st0 {
        fill-opacity: .5;
      }

      .st0, .st1, .st2, .st3, .st4, .st5, .st6, .st7 {
        fill: #fff;
      }

      .st8 {
        fill: #133c9a;
      }

      .st2, .st9 {
        display: none;
      }

      .st3 {
        fill-opacity: .2;
      }

      .st4 {
        fill-opacity: .9;
      }

      .st10 {
        fill: #3370ff;
      }

      .st11 {
        fill: url(#_未命名的渐变_3);
      }

      .st12 {
        fill: url(#_未命名的渐变);
      }

      .st5 {
        fill-opacity: .3;
      }

      .st6 {
        fill-opacity: 0;
      }

      .st7 {
        fill-opacity: .7;
      }

      .st13 {
        fill: #00d6b9;
      }

      .st14 {
        fill: url(#_未命名的渐变_2);
      }
    </style><radialGradient
       id="_未命名的渐变"
       data-name="未命名的渐变"
       cx="123.9"
       cy="-40.2"
       fx="123.9"
       fy="-40.2"
       r="59.4"
       gradientTransform="translate(-26.8 25.5) scale(.6 -.7)"
       gradientUnits="userSpaceOnUse"><stop
         offset="0"
         stop-color="#db202e"
         id="stop1" /><stop
         offset="1"
         stop-color="#e01b24"
         id="stop2" /></radialGradient><radialGradient
       id="_未命名的渐变_2"
       data-name="未命名的渐变 2"
       cx="67.6"
       cy="26.8"
       fx="67.6"
       fy="26.8"
       r="105.2"
       gradientTransform="translate(-26.6 25.3) scale(.6 -.7)"
       gradientUnits="userSpaceOnUse"><stop
         offset="0"
         stop-color="#ffb648"
         id="stop3" /><stop
         offset="1"
         stop-color="#ff7800"
         stop-opacity="0"
         id="stop4" /></radialGradient><radialGradient
       id="_未命名的渐变_3"
       data-name="未命名的渐变 3"
       cx="61.7"
       cy="18.6"
       fx="61.7"
       fy="18.6"
       r="68"
       gradientTransform="translate(-26.8 25.8) scale(.6 -.7)"
       gradientUnits="userSpaceOnUse"><stop
         offset="0"
         stop-color="#c64600"
         id="stop5" /><stop
         offset="1"
         stop-color="#a51d2d"
         id="stop6" /></radialGradient></defs><path
     class="st1"
     d="M47.5,64.1H13.8c-7.6,0-13.8-6.3-13.8-13.8V13.7C0,6.2,6.2,0,13.7,0h36.6c7.5,0,13.7,6.2,13.7,13.7v36.6c0,7.5-6.2,13.7-13.7,13.7h-2.9.1Z"
     id="path6"
     style="fill:#e6e6e6;fill-opacity:1" /><g
     id="g33"
     transform="matrix(0.90189041,0,0,0.88180784,2.999156,4.8086676)"><g
       transform="matrix(1.3999755,0,0,1.3999755,-1.5994123,-1.598887)"
       id="g1"><path
         style="fill:#6b79da"
         d="M 23.517578,4.5878906 C 13.1054,4.5878701 4.6645482,13.237727 4.6640625,23.888672 4.6637629,34.540185 13.104844,43.191427 23.517578,43.191406 33.930311,43.191426 42.371393,34.540185 42.371094,23.888672 42.370608,13.237727 33.929756,4.587871 23.517578,4.5878906 Z m 0.853516,11.3027344 c 4.357643,-2.1e-4 7.883021,3.525169 7.882812,7.882813 -5.48e-4,4.357106 -3.525706,7.881068 -7.882812,7.880859 -4.356569,-5.48e-4 -7.880312,-3.52429 -7.88086,-7.880859 -2.09e-4,-4.357106 3.523754,-7.882265 7.88086,-7.882813 z"
         id="path1" /></g><circle
       style="opacity:0.2;fill:none;stroke:#000000;stroke-width:3.99993"
       cx="32"
       cy="33"
       r="10"
       id="circle1" /><circle
       style="fill:none;stroke:#ffd907;stroke-width:3.99993"
       cx="32"
       cy="32.000999"
       r="10"
       id="circle2" /><path
       style="opacity:0.1"
       d="m 32.2184,5.0056235 c -0.488419,0.01076 -0.983099,0.038833 -1.48673,0.086158 C 17.720955,6.3143951 12.787561,12.482912 11.620583,14.256609 L 5.9722118,10.177118 4.4434047,25.110536 2.9125943,40.043955 16.611746,33.900674 30.308895,27.7594 21.554821,21.433784 c 0.162117,-2.141122 1.568996,-11.348603 13.869465,-11.024239 12.307947,0.324562 19.760282,10.960122 19.760282,10.960122 0,0 -7.825149,-16.6972431 -22.966168,-16.3640435 z"
       id="path2-6" /><path
       style="fill:#5a20a4"
       d="m 32.2184,4.0059363 c -0.488419,0.01076 -0.983099,0.038833 -1.48673,0.086158 C 17.720955,5.3147079 12.787561,11.483225 11.620583,13.256922 L 5.9722118,9.1774314 4.4434047,24.110849 2.9125943,39.044268 16.611746,32.900987 30.308895,26.759713 21.554821,20.434097 C 21.716938,18.292974 23.123817,9.085494 35.424286,9.4098581 47.732233,9.7344204 55.184568,20.36998 55.184568,20.36998 c 0,0 -7.825149,-16.6972433 -22.966168,-16.3640437 z"
       id="path3-1" /><path
       style="opacity:0.2"
       d="m 61.087405,26.523407 -13.552883,6.453851 -13.552883,6.453849 7.163151,4.931054 C 41.090631,45.716519 40.260101,55.931551 27.261299,55.588773 14.953355,55.26421 7.5030224,44.62865 7.5030224,44.62865 c 0,0 8.3366986,17.794325 24.4528986,16.27989 14.532253,-1.365595 18.980044,-8.867717 19.355535,-9.547529 l 7.40159,5.09335 1.188182,-14.965476 z"
       id="path4-2" /><path
       style="fill:#ff8020"
       d="m 61.087405,25.523442 -13.552883,6.453851 -13.552883,6.453849 7.163151,4.931054 C 41.090631,44.716554 40.260101,54.931586 27.261299,54.588808 14.953355,54.264245 7.5030224,43.628685 7.5030224,43.628685 c 0,0 8.3366986,17.794325 24.4528986,16.27989 14.532253,-1.365595 18.980044,-8.867717 19.355535,-9.547529 l 7.40159,5.09335 1.188182,-14.965476 z"
       id="path5" /><path
       style="opacity:0.1;fill:#ffffff"
       d="m 32.21875,4.0058594 c -0.488419,0.01076 -0.982697,0.038612 -1.486328,0.085937 C 17.721707,5.3144105 12.788072,11.484116 11.621094,13.257812 L 5.9726562,9.1777344 4.4433594,24.111328 2.9121094,39.044922 3.0195312,38.996094 4.4433594,25.111328 5.9726562,10.177734 11.621094,14.257812 c 1.166978,-1.773696 6.100613,-7.9434015 19.111328,-9.1660151 0.503631,-0.047325 0.997909,-0.075178 1.486328,-0.085937 10.913042,-0.240157 18.001812,8.3462711 21.123047,13.1718741 1.194691,1.282041 1.841797,2.191407 1.841797,2.191407 0,0 -7.823825,-16.6964807 -22.964844,-16.3632816 z M 21.669922,20.517578 c -0.05458,0.356611 -0.09838,0.693459 -0.115234,0.916016 l 7.90039,5.708984 0.853516,-0.382812 z"
       id="path6-9" /><path
       style="opacity:0.2;fill:#ffffff"
       d="M 61.087891,25.523438 47.535156,31.976562 33.982422,38.431641 34.841797,39.023438 47.535156,32.976562 61.005859,26.5625 Z M 7.5039062,43.628906 c 0,0 0.6282463,1.319429 1.8359376,3.1875 2.9142052,3.129356 9.1854492,8.541103 17.9218752,8.771485 12.998802,0.342778 13.828653,-9.872205 13.882812,-11.226563 l -0.08594,-0.06055 C 40.668971,47.196507 38.572939,54.886167 27.261719,54.587891 14.953775,54.263328 7.5039062,43.628906 7.5039062,43.628906 Z"
       id="path7" /></g></svg>

<svg xmlns="http://www.w3.org/2000/svg" width="64" height="64" version="1.1">
 <g transform="matrix(1.3999755,0,0,1.3999755,-1.5994123,-1.598887)">
  <path style="fill:#6b79da" d="M 23.517578,4.5878906 C 13.1054,4.5878701 4.6645482,13.237727 4.6640625,23.888672 4.6637629,34.540185 13.104844,43.191427 23.517578,43.191406 33.930311,43.191426 42.371393,34.540185 42.371094,23.888672 42.370608,13.237727 33.929756,4.587871 23.517578,4.5878906 Z m 0.853516,11.3027344 c 4.357643,-2.1e-4 7.883021,3.525169 7.882812,7.882813 -5.48e-4,4.357106 -3.525706,7.881068 -7.882812,7.880859 -4.356569,-5.48e-4 -7.880312,-3.52429 -7.88086,-7.880859 -2.09e-4,-4.357106 3.523754,-7.882265 7.88086,-7.882813 z"/>
 </g>
 <circle style="opacity:0.2;fill:none;stroke:#000000;stroke-width:3.99993" cx="32" cy="33" r="10"/>
 <circle style="fill:none;stroke:#ffd907;stroke-width:3.99993" cx="32" cy="32.001" r="10"/>
 <path style="opacity:0.1" d="m 32.2184,5.0056235 c -0.488419,0.01076 -0.983099,0.038833 -1.48673,0.086158 C 17.720955,6.3143951 12.787561,12.482912 11.620583,14.256609 L 5.9722118,10.177118 4.4434047,25.110536 2.9125943,40.043955 16.611746,33.900674 30.308895,27.7594 21.554821,21.433784 c 0.162117,-2.141122 1.568996,-11.348603 13.869465,-11.024239 12.307947,0.324562 19.760282,10.960122 19.760282,10.960122 0,0 -7.825149,-16.6972431 -22.966168,-16.3640435 z"/>
 <path style="fill:#5a20a4" d="m 32.2184,4.0059363 c -0.488419,0.01076 -0.983099,0.038833 -1.48673,0.086158 C 17.720955,5.3147079 12.787561,11.483225 11.620583,13.256922 L 5.9722118,9.1774314 4.4434047,24.110849 2.9125943,39.044268 16.611746,32.900987 30.308895,26.759713 21.554821,20.434097 C 21.716938,18.292974 23.123817,9.085494 35.424286,9.4098581 47.732233,9.7344204 55.184568,20.36998 55.184568,20.36998 c 0,0 -7.825149,-16.6972433 -22.966168,-16.3640437 z"/>
 <path style="opacity:0.2" d="m 61.087405,26.523407 -13.552883,6.453851 -13.552883,6.453849 7.163151,4.931054 C 41.090631,45.716519 40.260101,55.931551 27.261299,55.588773 14.953355,55.26421 7.5030224,44.62865 7.5030224,44.62865 c 0,0 8.3366986,17.794325 24.4528986,16.27989 14.532253,-1.365595 18.980044,-8.867717 19.355535,-9.547529 l 7.40159,5.09335 1.188182,-14.965476 z"/>
 <path style="fill:#ff8020" d="m 61.087405,25.523442 -13.552883,6.453851 -13.552883,6.453849 7.163151,4.931054 C 41.090631,44.716554 40.260101,54.931586 27.261299,54.588808 14.953355,54.264245 7.5030224,43.628685 7.5030224,43.628685 c 0,0 8.3366986,17.794325 24.4528986,16.27989 14.532253,-1.365595 18.980044,-8.867717 19.355535,-9.547529 l 7.40159,5.09335 1.188182,-14.965476 z"/>
 <path style="fill:#ffffff;opacity:0.1" d="M 32.21875 4.0058594 C 31.730331 4.0166194 31.236053 4.0444719 30.732422 4.0917969 C 17.721707 5.3144105 12.788072 11.484116 11.621094 13.257812 L 5.9726562 9.1777344 L 4.4433594 24.111328 L 2.9121094 39.044922 L 3.0195312 38.996094 L 4.4433594 25.111328 L 5.9726562 10.177734 L 11.621094 14.257812 C 12.788072 12.484116 17.721707 6.3144105 30.732422 5.0917969 C 31.236053 5.0444719 31.730331 5.0166194 32.21875 5.0058594 C 43.131792 4.7657024 50.220562 13.352131 53.341797 18.177734 C 54.536488 19.459775 55.183594 20.369141 55.183594 20.369141 C 55.183594 20.369141 47.359769 3.6726598 32.21875 4.0058594 z M 21.669922 20.517578 C 21.615337 20.874189 21.571539 21.211037 21.554688 21.433594 L 29.455078 27.142578 L 30.308594 26.759766 L 21.669922 20.517578 z"/>
 <path style="fill:#ffffff;opacity:0.2" d="M 61.087891 25.523438 L 47.535156 31.976562 L 33.982422 38.431641 L 34.841797 39.023438 L 47.535156 32.976562 L 61.005859 26.5625 L 61.087891 25.523438 z M 7.5039062 43.628906 C 7.5039062 43.628906 8.1321525 44.948335 9.3398438 46.816406 C 12.254049 49.945762 18.525293 55.357509 27.261719 55.587891 C 40.260521 55.930669 41.090372 45.715686 41.144531 44.361328 L 41.058594 44.300781 C 40.668971 47.196507 38.572939 54.886167 27.261719 54.587891 C 14.953775 54.263328 7.5039062 43.628906 7.5039062 43.628906 z"/>
</svg>
